X:1
T:Title
%%score { ( 1 3 ) | ( 2 4 ) }
L:1/8
M:4/4
K:Ab
V:1 treble nm="Grand Piano"
V:3 treble 
V:2 bass 
V:4 bass 
V:1
 z4 z2 z[Q:1/4=94] E | AG .[CF]2[K:bass] [E,CE]2 z2 | [E,CE]2 z2[K:treble] [Ece]2 z2 | %3
 AGFE E2 z c | [=DB]2 z c' b2 z E | AG .[CF]2[K:bass] [E,CE]2 z2 | %6
 [E,CE]2 z2[K:treble] [Ece]2 z E | FGAB [Ec]2 [EGB]2 |[M:7/8] [CEA]- [CEA]3 [Aca]2 z |[M:1/8] f | %10
[M:4/4] e2 z f' e'2 z c | AGAF E2 z f | e2 z f' e'2 z c | AGAc B2 z f |[M:7/8] e2 z f' e'2 z | %15
[M:1/8] c |[M:4/4] AGAF E2[K:bass] z E | FGAB [Ec]2 [EGB]2 |[M:7/8] [CEA]- [CEA]3 [Aca]2 z |] %19
V:2
 z8 | [A,,E,]2 z E A,,2 z F | A,,2 z[K:treble] f A,2 z E | [A,,E,]2 [A,,E,]2 [A,,E,]2 z2 | %4
 [B,,A,]2 z2[K:treble] [EGd]2 z2 | [A,,E,]2 z E A,,2 z F | A,,2 z[K:treble] f A,2 z2 | %7
 [D,,D,]2 [F,A,D]2 [E,,E,]2 [E,G,D]2 |[M:7/8] [A,,A,]2 [E,,E,]2 [A,,,A,,]2 z |[M:1/8] z | %10
[M:4/4][K:treble] [A,CEA]2 z2 [Acea]2 z2 | [A,,A,]2 [E,,E,]2 [A,,,A,,]2 z2 | %12
 [A,CEA]2 z2 [Acea]2 z2 | [A,,A,]2 [C,,C,]2 [E,,E,]2 z2 |[M:7/8][K:treble] [A,CEA]2 z2 [Acea]2 z | %15
[M:1/8] z |[M:4/4][K:bass] [A,,A,]2 [E,,E,]2 [A,,,A,,]2 C,,2 | %17
 [D,,D,]2 [F,A,D]2 [E,,E,]2 [E,G,D]2 |[M:7/8] [A,,A,]2 [E,,E,]2 [A,,,A,,]2 z |] %19
V:3
 x8 | C2 z2[K:bass] z4 | x4[K:treble] x4 | C2 C2 z4 | x8 | C2 z2[K:bass] z4 | x4[K:treble] x4 | %7
 x8 |[M:7/8] x7 |[M:1/8] x |[M:4/4] x8 | x8 | x8 | x8 |[M:7/8] x7 |[M:1/8] x | %16
[M:4/4] z4 z2[K:bass] C,2 | x8 |[M:7/8] x7 |] %19
V:4
 x8 | z2 [A,,E,]2 z4 | x3[K:treble] x5 | x8 | x4[K:treble] x4 | z2 [A,,E,]2 z4 | x3[K:treble] x5 | %7
 x8 |[M:7/8] x7 |[M:1/8] x |[M:4/4][K:treble] x8 | x8 | x8 | x8 |[M:7/8][K:treble] x7 |[M:1/8] x | %16
[M:4/4][K:bass] x8 | x8 |[M:7/8] x7 |] %19

